X: 11172
T: The BANKS OF BANNA
Q: "Slow"
%R: march, air
B: "Edinburgh Repository of Music" v.1 p.117 #2
F: http://digital.nls.uk/special-collections-of-printed-music/pageturner.cfm?id=87776133
Z: 2015 John Chambers <jc:trillian.mit.edu>
M: C
L: 1/8
K: F
|:\
f3g a2ag | (gf)(fc) c4 |\
d2c2 f2(eg/f/) | e2Td2 c4 |\
f2f2 (fa)(ac') | c2(c>d) (dc)(BA) |\
(Bc)(de) Hf>{gfef}g Ha z/B/ | A2 TG2 F3z :|
|:\
A3G A2B2 | c2c>d {d}c4 |\
d2c2 f2(eg/f/) | e2Td2 c4 |\
f2f2 (fa)(ac') | c2(c>d) (dc)(BA) |\
(Bc)(de) Hf>{gfef}g Ha z/B/ | A2 TG2 F3z :|

%%sep 2 1 500
%%sep 1 1 500

